chrome/icons/reveal.svg

<svg height="16" viewBox="0 171 1024 683" width="16" xmlns="http://www.w3.org/2000/svg" xmlns:xlink="http://www.w3.org/1999/xlink">
  <path d="M0,554.5C0,550.833 0.5,547.167 1.5,543.5C11.5,505.833 25.75,470.417 44.25,437.25C62.75,404.083 84.5833,373.667 109.75,346C134.917,318.333 162.75,293.667 193.25,272C223.75,250.333 256.25,231.917 290.75,216.75C325.25,201.583 361.167,190.083 398.5,182.25C435.833,174.417 473.667,170.5 512,170.5C550,170.5 587.583,174.417 624.75,182.25C661.917,190.083 697.75,201.5 732.25,216.5C766.75,231.5 799.417,249.917 830.25,271.75C861.083,293.583 889.083,318.25 914.25,345.75C939.417,373.25 961.25,403.5 979.75,436.5C998.25,469.5 1012.5,504.833 1022.5,542.5C1023.5,546.167 1024,550 1024,554C1024,566 1019.92,576.083 1011.75,584.25C1003.58,592.417 993.5,596.5 981.5,596.5C971.5,596.5 962.917,593.667 955.75,588C948.583,582.333 943.333,574.833 940,565.5C937,556.167 934.083,547.5 931.25,539.5C928.417,531.5 925.5,523.583 922.5,515.75C919.5,507.917 916.167,500.167 912.5,492.5C908.833,484.833 904.333,476.667 899,468C879.333,435 855.583,405.417 827.75,379.25C799.917,353.083 769.333,330.917 736,312.75C702.667,294.583 667.417,280.583 630.25,270.75C593.083,260.917 555.5,256 517.5,256L506.5,256C468.5,256 430.917,260.917 393.75,270.75C356.583,280.583 321.333,294.667 288,313C254.667,331.333 224,353.583 196,379.75C168,405.917 144.333,435.5 125,468.5C119.667,477.167 115.167,485.417 111.5,493.25C107.833,501.083 104.5,508.833 101.5,516.5C98.5,524.167 95.5833,532 92.75,540C89.9167,548 87,556.667 84,566C80.6667,575.333 75.5,582.917 68.5,588.75C61.5,594.583 52.8333,597.5 42.5,597.5C36.8333,597.5 31.4167,596.333 26.25,594C21.0833,591.667 16.5833,588.583 12.75,584.75C8.91667,580.917 5.83333,576.417 3.5,571.25C1.16667,566.083 0,560.5 0,554.5ZM256,597.5L256,592.5C256,557.833 262.917,525.25 276.75,494.75C290.583,464.25 309.25,437.667 332.75,415C356.25,392.333 383.417,374.417 414.25,361.25C445.083,348.083 477.667,341.5 512,341.5C547.333,341.5 580.583,348.167 611.75,361.5C642.917,374.833 670.083,393.083 693.25,416.25C716.417,439.417 734.667,466.583 748,497.75C761.333,528.917 768,562.167 768,597.5C768,632.833 761.333,666.083 748,697.25C734.667,728.417 716.417,755.583 693.25,778.75C670.083,801.917 642.917,820.167 611.75,833.5C580.583,846.833 547.333,853.5 512,853.5C476.667,853.5 443.417,846.833 412.25,833.5C381.083,820.167 353.917,801.917 330.75,778.75C307.583,755.583 289.333,728.417 276,697.25C262.667,666.083 256,632.833 256,597.5ZM682.5,597.5L682.5,594C682.5,571 677.917,549.333 668.75,529C659.583,508.667 647.167,490.917 631.5,475.75C615.833,460.583 597.667,448.583 577,439.75C556.333,430.917 534.667,426.5 512,426.5C488.333,426.5 466.167,431 445.5,440C424.833,449 406.833,461.25 391.5,476.75C376.167,492.25 364,510.417 355,531.25C346,552.083 341.5,574.167 341.5,597.5C341.5,621.167 346,643.333 355,664C364,684.667 376.167,702.667 391.5,718C406.833,733.333 424.833,745.5 445.5,754.5C466.167,763.5 488.333,768 512,768C535.333,768 557.417,763.5 578.25,754.5C599.083,745.5 617.167,733.333 632.5,718C647.833,702.667 660,684.667 669,664C678,643.333 682.5,621.167 682.5,597.5Z" fill="context-fill" fill-opacity="context-fill-opacity">
  </path>
</svg>

<svg xmlns="http://www.w3.org/2000/svg" width="16" height="16" viewBox="0 171 1024 683"><path fill="context-fill" fill-opacity="context-fill-opacity" d="M0 554.5q0-5.5 1.5-11 15-56.5 42.75-106.25t65.5-91.25a518.4 518.4 0 0 1 83.5-74q45.75-32.5 97.5-55.25t107.75-34.5T512 170.5q57 0 112.75 11.75t107.5 34.25 98 55.25 84 74 65.5 90.75 42.75 106q1.5 5.5 1.5 11.5c0 12-4.08 22.083-12.25 30.25S993.5 596.5 981.5 596.5q-15 0-25.75-8.5T940 565.5q-4.5-14-8.75-26a996 996 0 0 0-8.75-23.75q-4.5-11.75-10-23.25T899 468q-29.5-49.5-71.25-88.75T736 312.75t-105.75-42T517.5 256h-11q-57 0-112.75 14.75T288 313t-92 66.75-71 88.75q-8 13-13.5 24.75t-10 23.25-8.75 23.5T84 566q-5 14-15.5 22.75t-26 8.75a39.05 39.05 0 0 1-16.25-3.5q-7.75-3.5-13.5-9.25t-9.25-13.5T0 554.5m256 43v-5q0-52 20.75-97.75t56-79.75 81.5-53.75T512 341.5q53 0 99.75 20t81.5 54.75 54.75 81.5 20 99.75-20 99.75-54.75 81.5-81.5 54.75-99.75 20-99.75-20-81.5-54.75-54.75-81.5-20-99.75m426.5 0V594q0-34.5-13.75-65t-37.25-53.25-54.5-36-65-13.25q-35.5 0-66.5 13.5t-54 36.75-36.5 54.5-13.5 66.25q0 35.5 13.5 66.5t36.5 54 54 36.5T512 768q35 0 66.25-13.5T632.5 718t36.5-54 13.5-66.5"/></svg>
